public/assets/images/feature/05.svg

<svg width="56" height="56" viewBox="0 0 56 56" fill="none" xmlns="http://www.w3.org/2000/svg">
<path d="M51.625 1.75H4.375C3.67905 1.7508 3.01183 2.02761 2.51972 2.51972C2.02761 3.01183 1.7508 3.67905 1.75 4.375V42.875C1.7508 43.5709 2.02761 44.2382 2.51972 44.7303C3.01183 45.2224 3.67905 45.4992 4.375 45.5H22.449L20.349 52.5H17.5V54.25H38.5V52.5H35.651L33.551 45.5H51.625C52.3209 45.4992 52.9882 45.2224 53.4803 44.7303C53.9724 44.2382 54.2492 43.5709 54.25 42.875V4.375C54.2492 3.67905 53.9724 3.01183 53.4803 2.51972C52.9882 2.02761 52.3209 1.7508 51.625 1.75ZM33.824 52.5H22.176L24.276 45.5H31.724L33.824 52.5ZM52.5 42.875C52.4997 43.107 52.4075 43.3294 52.2434 43.4934C52.0794 43.6575 51.857 43.7497 51.625 43.75H4.375C4.14302 43.7497 3.92061 43.6575 3.75657 43.4934C3.59254 43.3294 3.50027 43.107 3.5 42.875V40.25H52.5V42.875ZM52.5 38.5H3.5V4.375C3.50027 4.14302 3.59254 3.92061 3.75657 3.75657C3.92061 3.59254 4.14302 3.50027 4.375 3.5H51.625C51.857 3.50027 52.0794 3.59254 52.2434 3.75657C52.4075 3.92061 52.4997 4.14302 52.5 4.375V38.5Z" fill="#0F62FE"/>
<path d="M48.125 16.625H36.5999C36.4849 16.6253 36.371 16.6028 36.2648 16.5588C36.1586 16.5148 36.0622 16.4502 35.9811 16.3687L33.5063 13.8938C33.2631 13.6493 32.9738 13.4555 32.6552 13.3235C32.3366 13.1915 31.995 13.1241 31.6501 13.125H21.875C21.1791 13.1258 20.5118 13.4026 20.0197 13.8947C19.5276 14.3868 19.2508 15.0541 19.25 15.75V34.125C19.2508 34.821 19.5276 35.4882 20.0197 35.9803C20.5118 36.4724 21.1791 36.7492 21.875 36.75H48.125C48.8209 36.7492 49.4882 36.4724 49.9803 35.9803C50.4724 35.4882 50.7492 34.821 50.75 34.125V19.25C50.7492 18.5541 50.4724 17.8868 49.9803 17.3947C49.4882 16.9026 48.8209 16.6258 48.125 16.625ZM49 34.125C48.9997 34.357 48.9075 34.5794 48.7434 34.7434C48.5794 34.9075 48.357 34.9997 48.125 35H21.875C21.643 34.9997 21.4206 34.9075 21.2566 34.7434C21.0925 34.5794 21.0003 34.357 21 34.125V15.75C21.0003 15.518 21.0925 15.2956 21.2566 15.1316C21.4206 14.9675 21.643 14.8753 21.875 14.875H31.6501C31.7651 14.8747 31.879 14.8972 31.9852 14.9412C32.0914 14.9852 32.1878 15.0498 32.2689 15.1314L34.7437 17.6062C34.9869 17.8507 35.2762 18.0446 35.5948 18.1765C35.9134 18.3085 36.255 18.376 36.5999 18.375H48.125C48.357 18.3753 48.5794 18.4675 48.7434 18.6316C48.9075 18.7956 48.9997 19.018 49 19.25V34.125Z" fill="#0F62FE"/>
<path d="M29.1313 21.2559L24.1377 26.2496L29.1313 31.2433L30.3688 30.0059L26.6124 26.2496L30.3688 22.4933L29.1313 21.2559Z" fill="#0F62FE"/>
<path d="M32.4927 30.2158L36.8709 22.3422L38.4003 23.1927L34.0221 31.0663L32.4927 30.2158Z" fill="#0F62FE"/>
<path d="M39.6313 22.4933L43.3877 26.2496L39.6313 30.0059L40.8688 31.2433L45.8624 26.2496L40.8688 21.2559L39.6313 22.4933Z" fill="#0F62FE"/>
<path d="M22.1806 7L23.5975 10.3052L26.7224 11.6L30.067 10.2635L31.7972 11.9937L33.0345 10.7563L30.4888 8.21034L26.7344 9.71064L24.9254 8.96109L23.3344 5.25H18.6656L17.0748 8.96109L15.2656 9.71064L11.5113 8.21034L8.21045 11.5113L9.71064 15.2656L8.96109 17.0746L5.25 18.6656V23.3344L8.96098 24.9254L9.71064 26.7344L8.21034 30.4887L11.5112 33.7897L15.2656 32.2894L17.165 33.0764L17.835 31.4597L15.2776 30.4L11.933 31.7365L10.2635 30.067L11.6 26.7224L10.3051 23.5974L7 22.1806V19.8194L10.3052 18.4026L11.6 15.2776L10.2635 11.933L11.9331 10.2635L15.2776 11.6L18.4025 10.3052L19.8194 7H22.1806Z" fill="#0F62FE"/>
<path d="M17.8894 14.7273L17.1106 13.1602C15.6509 13.8849 14.4225 15.0028 13.5637 16.3879C12.705 17.773 12.25 19.3704 12.25 21.0001C12.25 22.6299 12.705 24.2272 13.5637 25.6124C14.4225 26.9975 15.6509 28.1154 17.1106 28.8401L17.8894 27.2729C16.7214 26.6932 15.7384 25.7988 15.0512 24.6905C14.3641 23.5822 14 22.3041 14 21.0001C14 19.6961 14.3641 18.418 15.0512 17.3097C15.7384 16.2015 16.7214 15.3071 17.8894 14.7273Z" fill="#0F62FE"/>
</svg>

<svg xmlns="http://www.w3.org/2000/svg" width="56" height="56" fill="none" viewBox="0 0 56 56"><path fill="#0f62fe" d="M51.625 1.75H4.375A2.63 2.63 0 0 0 1.75 4.375v38.5A2.63 2.63 0 0 0 4.375 45.5h18.074l-2.1 7H17.5v1.75h21V52.5h-2.849l-2.1-7h18.074a2.63 2.63 0 0 0 2.625-2.625v-38.5a2.63 2.63 0 0 0-2.625-2.625M33.824 52.5H22.176l2.1-7h7.448zM52.5 42.875a.876.876 0 0 1-.875.875H4.375a.876.876 0 0 1-.875-.875V40.25h49zm0-4.375h-49V4.375a.876.876 0 0 1 .875-.875h47.25a.876.876 0 0 1 .875.875z"/><path fill="#0f62fe" d="M48.125 16.625H36.6a.87.87 0 0 1-.619-.256l-2.475-2.475a2.6 2.6 0 0 0-1.856-.769h-9.775a2.63 2.63 0 0 0-2.625 2.625v18.375a2.63 2.63 0 0 0 2.625 2.625h26.25a2.63 2.63 0 0 0 2.625-2.625V19.25a2.63 2.63 0 0 0-2.625-2.625m.875 17.5a.876.876 0 0 1-.875.875h-26.25a.876.876 0 0 1-.875-.875V15.75a.876.876 0 0 1 .875-.875h9.775a.87.87 0 0 1 .619.256l2.475 2.475a2.6 2.6 0 0 0 1.856.769h11.525a.876.876 0 0 1 .875.875z"/><path fill="#0f62fe" d="m29.131 21.256-4.993 4.994 4.993 4.993 1.238-1.237-3.757-3.756 3.757-3.757zm3.362 8.96 4.378-7.874 1.53.85-4.379 7.874zm7.138-7.723 3.757 3.757-3.757 3.756 1.238 1.237 4.993-4.993-4.993-4.994zM22.18 7l1.418 3.305 3.124 1.295 3.345-1.336 1.73 1.73 1.238-1.238-2.546-2.546-3.755 1.5-1.809-.749-1.59-3.711h-4.67l-1.59 3.711-1.81.75-3.754-1.5-3.3 3.3 1.5 3.755-.75 1.809-3.711 1.59v4.67l3.711 1.59.75 1.81-1.5 3.754 3.3 3.3 3.755-1.5 1.899.787.67-1.616-2.557-1.06-3.345 1.337-1.67-1.67 1.337-3.345-1.295-3.125L7 22.181v-2.362l3.305-1.416 1.295-3.125-1.336-3.345 1.67-1.67 3.344 1.337 3.124-1.295L19.82 7z"/><path fill="#0f62fe" d="m17.89 14.727-.78-1.567a8.753 8.753 0 0 0 0 15.68l.78-1.567a7.003 7.003 0 0 1 0-12.546"/></svg>
